components/ui-node-icon/src/addNewColumn/addNewColumn.medium.svg

<svg width="24" height="24" viewBox="0 0 24 24" fill="none" xmlns="http://www.w3.org/2000/svg">
  <path fill-rule="evenodd" clip-rule="evenodd" d="M11 4C11 2.89543 10.1046 2 9 2H5C3.89543 2 3 2.89543 3 4V19C3 20.1046 3.89543 21 5 21H9C9.29303 21 9.57135 20.937 9.82213 20.8238C7.52936 19.417 6 16.8871 6 14C6 10.6426 8.06817 7.76829 11 6.58152V4Z" fill="var(--tbl--colors--icons--clean--secondary)"/>
  <path fill-rule="evenodd" clip-rule="evenodd" d="M14 22C18.4183 22 22 18.4183 22 14C22 9.58172 18.4183 6 14 6C9.58172 6 6 9.58172 6 14C6 18.4183 9.58172 22 14 22ZM13 11C13 10.4477 13.4477 10 14 10C14.5523 10 15 10.4477 15 11V13H17C17.5523 13 18 13.4477 18 14C18 14.5523 17.5523 15 17 15H15V17C15 17.5523 14.5523 18 14 18C13.4477 18 13 17.5523 13 17V15H11C10.4477 15 10 14.5523 10 14C10 13.4477 10.4477 13 11 13H13V11Z" fill="var(--tbl--colors--icons--clean--primary)"/>
</svg>

<svg xmlns="http://www.w3.org/2000/svg" width="24" height="24" fill="none" viewBox="0 0 24 24">
  <path fill="var(--tbl--colors--icons--clean--secondary)" fill-rule="evenodd" d="M11 4a2 2 0 0 0-2-2H5a2 2 0 0 0-2 2v15a2 2 0 0 0 2 2h4c.293 0 .571-.063.822-.176A8.003 8.003 0 0 1 11 6.582V4Z" clip-rule="evenodd"/>
  <path fill="var(--tbl--colors--icons--clean--primary)" fill-rule="evenodd" d="M14 22a8 8 0 1 0 0-16 8 8 0 0 0 0 16Zm-1-11a1 1 0 1 1 2 0v2h2a1 1 0 1 1 0 2h-2v2a1 1 0 1 1-2 0v-2h-2a1 1 0 1 1 0-2h2v-2Z" clip-rule="evenodd"/>
</svg>
